22x22/apps/cavepacker-icon.svg

<svg width="22" height="22" version="1.1" xmlns="http://www.w3.org/2000/svg">
 <rect x="5" y="8" width="12" height="3" style="fill:#885e3d"/>
 <rect x="5" y="14" width="12" height="3" style="fill:#885e3d"/>
 <rect x="5" y="11.5" width="12" height="3" style="opacity:.2"/>
 <rect x="5" y="11" width="12" height="3" style="fill:#c29875"/>
 <path d="m5 11v0.5h12v-0.5h-12z" style="fill:#f4f4f7;opacity:.2"/>
 <rect x="5" y="5.5" width="12" height="3" style="opacity:.2"/>
 <rect x="5" y="5" width="12" height="3" style="fill:#c29875"/>
 <rect x="4" y="4" width="2" height="14" style="fill:#c5c5c5"/>
 <rect x="16" y="4" width="2" height="14" style="fill:#c5c5c5"/>
 <path d="M 2.5,1.5 A 1.5,1.5 0 0 0 1,3 1.5,1.5 0 0 0 2.5,4.5 1.5,1.5 0 0 0 1,6 1.5,1.5 0 0 0 2.5,7.5 1.5,1.5 0 0 0 4,6 1.5,1.5 0 0 0 3.9121094,5.5 H 18.087891 A 1.5,1.5 0 0 0 18,6 1.5,1.5 0 0 0 19.5,7.5 1.5,1.5 0 0 0 21,6 1.5,1.5 0 0 0 19.5,4.5 1.5,1.5 0 0 0 21,3 1.5,1.5 0 0 0 19.5,1.5 1.5,1.5 0 0 0 18,3 1.5,1.5 0 0 0 18.087891,3.5 H 3.9121094 A 1.5,1.5 0 0 0 4,3 1.5,1.5 0 0 0 2.5,1.5 Z" style="opacity:.2"/>
 <path d="m2.5 1a1.5 1.5 0 0 0-1.5 1.5 1.5 1.5 0 0 0 1.5 1.5 1.5 1.5 0 0 0-1.5 1.5 1.5 1.5 0 0 0 1.5 1.5 1.5 1.5 0 0 0 1.5-1.5 1.5 1.5 0 0 0-0.0878906-0.5h14.175782a1.5 1.5 0 0 0-0.087891 0.5 1.5 1.5 0 0 0 1.5 1.5 1.5 1.5 0 0 0 1.5-1.5 1.5 1.5 0 0 0-1.5-1.5 1.5 1.5 0 0 0 1.5-1.5 1.5 1.5 0 0 0-1.5-1.5 1.5 1.5 0 0 0-1.5 1.5 1.5 1.5 0 0 0 0.087891 0.5h-14.175782a1.5 1.5 0 0 0 0.0878906-0.5 1.5 1.5 0 0 0-1.5-1.5z" style="fill:#f4f4f7"/>
 <path d="m2.5 15.5a1.5 1.5 0 0 0-1.5 1.5 1.5 1.5 0 0 0 1.5 1.5 1.5 1.5 0 0 0-1.5 1.5 1.5 1.5 0 0 0 1.5 1.5 1.5 1.5 0 0 0 1.5-1.5 1.5 1.5 0 0 0-0.0878906-0.5h14.175782a1.5 1.5 0 0 0-0.08789 0.5 1.5 1.5 0 0 0 1.5 1.5 1.5 1.5 0 0 0 1.5-1.5 1.5 1.5 0 0 0-1.5-1.5 1.5 1.5 0 0 0 1.5-1.5 1.5 1.5 0 0 0-1.5-1.5 1.5 1.5 0 0 0-1.5 1.5 1.5 1.5 0 0 0 0.08789 0.5h-14.175782a1.5 1.5 0 0 0 0.087891-0.5 1.5 1.5 0 0 0-1.5000004-1.5z" style="opacity:.2"/>
 <path d="m2.5 15a1.5 1.5 0 0 0-1.5 1.5 1.5 1.5 0 0 0 1.5 1.5 1.5 1.5 0 0 0-1.5 1.5 1.5 1.5 0 0 0 1.5 1.5 1.5 1.5 0 0 0 1.5-1.5 1.5 1.5 0 0 0-0.0878906-0.5h14.175782a1.5 1.5 0 0 0-0.08789 0.5 1.5 1.5 0 0 0 1.5 1.5 1.5 1.5 0 0 0 1.5-1.5 1.5 1.5 0 0 0-1.5-1.5 1.5 1.5 0 0 0 1.5-1.5 1.5 1.5 0 0 0-1.5-1.5 1.5 1.5 0 0 0-1.5 1.5 1.5 1.5 0 0 0 0.08789 0.5h-14.175782a1.5 1.5 0 0 0 0.087891-0.5 1.5 1.5 0 0 0-1.5000004-1.5z" style="fill:#f4f4f7"/>
 <path d="M 2.5 1 A 1.5 1.5 0 0 0 1 2.5 A 1.5 1.5 0 0 0 1.0214844 2.7441406 A 1.5 1.5 0 0 1 2.5 1.5 A 1.5 1.5 0 0 1 3.9765625 2.7460938 A 1.5 1.5 0 0 0 4 2.5 A 1.5 1.5 0 0 0 2.5 1 z M 19.5 1 A 1.5 1.5 0 0 0 18 2.5 A 1.5 1.5 0 0 0 18.021484 2.7421875 A 1.5 1.5 0 0 1 19.5 1.5 A 1.5 1.5 0 0 1 20.978516 2.7558594 A 1.5 1.5 0 0 0 21 2.5 A 1.5 1.5 0 0 0 19.5 1 z M 4 3 A 1.5 1.5 0 0 1 3.9121094 3.5 L 18.087891 3.5 A 1.5 1.5 0 0 1 18 3 L 4 3 z M 1.671875 4.25 A 1.5 1.5 0 0 0 1 5.5 A 1.5 1.5 0 0 0 1.0214844 5.7441406 A 1.5 1.5 0 0 1 2.5 4.5 A 1.5 1.5 0 0 1 1.671875 4.25 z M 20.328125 4.25 A 1.5 1.5 0 0 1 19.5 4.5 A 1.5 1.5 0 0 1 20.978516 5.7558594 A 1.5 1.5 0 0 0 21 5.5 A 1.5 1.5 0 0 0 20.328125 4.25 z M 3.9121094 5.5 A 1.5 1.5 0 0 1 3.9785156 5.7558594 A 1.5 1.5 0 0 0 4 5.5 L 3.9121094 5.5 z M 18 5.5 A 1.5 1.5 0 0 0 18.023438 5.7539062 A 1.5 1.5 0 0 1 18.087891 5.5 L 18 5.5 z " style="fill:#f4f4f7;opacity:.2"/>
 <path d="m2.5 15a1.5 1.5 0 0 0-1.5 1.5 1.5 1.5 0 0 0 0.0214844 0.244141 1.5 1.5 0 0 1 1.4785156-1.244141 1.5 1.5 0 0 1 1.4765625 1.246094 1.5 1.5 0 0 0 0.0234375-0.246094 1.5 1.5 0 0 0-1.5-1.5zm17 0a1.5 1.5 0 0 0-1.5 1.5 1.5 1.5 0 0 0 0.021484 0.242188 1.5 1.5 0 0 1 1.478516-1.242188 1.5 1.5 0 0 1 1.478516 1.255859 1.5 1.5 0 0 0 0.021484-0.255859 1.5 1.5 0 0 0-1.5-1.5zm-15.5 2a1.5 1.5 0 0 1-0.0878906 0.5h14.175782a1.5 1.5 0 0 1-0.087891-0.5h-14zm-2.328125 1.25a1.5 1.5 0 0 0-0.671875 1.25 1.5 1.5 0 0 0 0.0214844 0.244141 1.5 1.5 0 0 1 1.4785156-1.244141 1.5 1.5 0 0 1-0.828125-0.25zm18.65625 0a1.5 1.5 0 0 1-0.828125 0.25 1.5 1.5 0 0 1 1.478516 1.255859 1.5 1.5 0 0 0 0.021484-0.255859 1.5 1.5 0 0 0-0.671875-1.25zm-16.416016 1.25a1.5 1.5 0 0 1 0.0664062 0.255859 1.5 1.5 0 0 0 0.0214844-0.255859h-0.0878906zm14.087891 0a1.5 1.5 0 0 0 0.023438 0.253906 1.5 1.5 0 0 1 0.064453-0.253906h-0.087891z" style="fill:#f4f4f7;opacity:.2"/>
</svg>

<svg width="22" height="22" xmlns="http://www.w3.org/2000/svg"><path style="fill:#885e3d" d="M5 8h12v3H5zM5 14h12v3H5z"/><path style="opacity:.2" d="M5 11.5h12v3H5z"/><path style="fill:#c29875" d="M5 11h12v3H5z"/><path d="M5 11v.5h12V11H5z" style="fill:#f4f4f7;opacity:.2"/><path style="opacity:.2" d="M5 5.5h12v3H5z"/><path style="fill:#c29875" d="M5 5h12v3H5z"/><path style="fill:#c5c5c5" d="M4 4h2v14H4zM16 4h2v14h-2z"/><path d="M2.5 1.5A1.5 1.5 0 0 0 1 3a1.5 1.5 0 0 0 1.5 1.5A1.5 1.5 0 0 0 1 6a1.5 1.5 0 0 0 1.5 1.5A1.5 1.5 0 0 0 4 6a1.5 1.5 0 0 0-.088-.5h14.176A1.5 1.5 0 0 0 18 6a1.5 1.5 0 0 0 1.5 1.5A1.5 1.5 0 0 0 21 6a1.5 1.5 0 0 0-1.5-1.5A1.5 1.5 0 0 0 21 3a1.5 1.5 0 0 0-1.5-1.5A1.5 1.5 0 0 0 18 3a1.5 1.5 0 0 0 .088.5H3.912A1.5 1.5 0 0 0 4 3a1.5 1.5 0 0 0-1.5-1.5z" style="opacity:.2"/><path d="M2.5 1A1.5 1.5 0 0 0 1 2.5 1.5 1.5 0 0 0 2.5 4 1.5 1.5 0 0 0 1 5.5 1.5 1.5 0 0 0 2.5 7 1.5 1.5 0 0 0 4 5.5a1.5 1.5 0 0 0-.088-.5h14.176a1.5 1.5 0 0 0-.088.5A1.5 1.5 0 0 0 19.5 7 1.5 1.5 0 0 0 21 5.5 1.5 1.5 0 0 0 19.5 4 1.5 1.5 0 0 0 21 2.5 1.5 1.5 0 0 0 19.5 1 1.5 1.5 0 0 0 18 2.5a1.5 1.5 0 0 0 .088.5H3.912A1.5 1.5 0 0 0 4 2.5 1.5 1.5 0 0 0 2.5 1z" style="fill:#f4f4f7"/><path d="M2.5 15.5A1.5 1.5 0 0 0 1 17a1.5 1.5 0 0 0 1.5 1.5A1.5 1.5 0 0 0 1 20a1.5 1.5 0 0 0 1.5 1.5A1.5 1.5 0 0 0 4 20a1.5 1.5 0 0 0-.088-.5h14.176A1.5 1.5 0 0 0 18 20a1.5 1.5 0 0 0 1.5 1.5A1.5 1.5 0 0 0 21 20a1.5 1.5 0 0 0-1.5-1.5A1.5 1.5 0 0 0 21 17a1.5 1.5 0 0 0-1.5-1.5A1.5 1.5 0 0 0 18 17a1.5 1.5 0 0 0 .088.5H3.912A1.5 1.5 0 0 0 4 17a1.5 1.5 0 0 0-1.5-1.5z" style="opacity:.2"/><path d="M2.5 15A1.5 1.5 0 0 0 1 16.5 1.5 1.5 0 0 0 2.5 18 1.5 1.5 0 0 0 1 19.5 1.5 1.5 0 0 0 2.5 21 1.5 1.5 0 0 0 4 19.5a1.5 1.5 0 0 0-.088-.5h14.176a1.5 1.5 0 0 0-.088.5 1.5 1.5 0 0 0 1.5 1.5 1.5 1.5 0 0 0 1.5-1.5 1.5 1.5 0 0 0-1.5-1.5 1.5 1.5 0 0 0 1.5-1.5 1.5 1.5 0 0 0-1.5-1.5 1.5 1.5 0 0 0-1.5 1.5 1.5 1.5 0 0 0 .088.5H3.912A1.5 1.5 0 0 0 4 16.5 1.5 1.5 0 0 0 2.5 15z" style="fill:#f4f4f7"/><path d="M2.5 1A1.5 1.5 0 0 0 1 2.5a1.5 1.5 0 0 0 .021.244A1.5 1.5 0 0 1 2.5 1.5a1.5 1.5 0 0 1 1.477 1.246A1.5 1.5 0 0 0 4 2.5 1.5 1.5 0 0 0 2.5 1zm17 0A1.5 1.5 0 0 0 18 2.5a1.5 1.5 0 0 0 .021.242A1.5 1.5 0 0 1 19.5 1.5a1.5 1.5 0 0 1 1.479 1.256A1.5 1.5 0 0 0 21 2.5 1.5 1.5 0 0 0 19.5 1zM4 3a1.5 1.5 0 0 1-.088.5h14.176A1.5 1.5 0 0 1 18 3H4zM1.672 4.25A1.5 1.5 0 0 0 1 5.5a1.5 1.5 0 0 0 .021.244A1.5 1.5 0 0 1 2.5 4.5a1.5 1.5 0 0 1-.828-.25zm18.656 0a1.5 1.5 0 0 1-.828.25 1.5 1.5 0 0 1 1.479 1.256A1.5 1.5 0 0 0 21 5.5a1.5 1.5 0 0 0-.672-1.25zM3.912 5.5a1.5 1.5 0 0 1 .067.256A1.5 1.5 0 0 0 4 5.5h-.088zM18 5.5a1.5 1.5 0 0 0 .023.254 1.5 1.5 0 0 1 .065-.254H18zM2.5 15A1.5 1.5 0 0 0 1 16.5a1.5 1.5 0 0 0 .021.244A1.5 1.5 0 0 1 2.5 15.5a1.5 1.5 0 0 1 1.477 1.246A1.5 1.5 0 0 0 4 16.5 1.5 1.5 0 0 0 2.5 15zm17 0a1.5 1.5 0 0 0-1.5 1.5 1.5 1.5 0 0 0 .021.242A1.5 1.5 0 0 1 19.5 15.5a1.5 1.5 0 0 1 1.479 1.256A1.5 1.5 0 0 0 21 16.5a1.5 1.5 0 0 0-1.5-1.5zM4 17a1.5 1.5 0 0 1-.088.5h14.176A1.5 1.5 0 0 1 18 17H4zm-2.328 1.25A1.5 1.5 0 0 0 1 19.5a1.5 1.5 0 0 0 .021.244A1.5 1.5 0 0 1 2.5 18.5a1.5 1.5 0 0 1-.828-.25zm18.656 0a1.5 1.5 0 0 1-.828.25 1.5 1.5 0 0 1 1.479 1.256A1.5 1.5 0 0 0 21 19.5a1.5 1.5 0 0 0-.672-1.25zM3.912 19.5a1.5 1.5 0 0 1 .067.256A1.5 1.5 0 0 0 4 19.5h-.088zM18 19.5a1.5 1.5 0 0 0 .023.254 1.5 1.5 0 0 1 .065-.254H18z" style="fill:#f4f4f7;opacity:.2"/></svg>
